X:7
T:"Give Us A Drink of Water"
M:9/8
L:1/8
K:G
BGG AGE DEG|BGG GFG A2c|BGG AGE DEG|cBA BGE D3:||
Bdd dge dBG|Bdd dBG A2c|Bdd dge dBG|cBA BGE D3|
Bdd dge dBG|Bdd dBG Aef|gfe dBd cBA|cBA BGE D3||
